icons/ear.svg

<svg width="24" height="24" viewBox="0 0 24 24" fill="none" xmlns="http://www.w3.org/2000/svg">
<path fill-rule="evenodd" clip-rule="evenodd" d="M13.5741 3.23787C12.6965 2.96787 11.7773 2.92734 10.8853 3.11824C9.99281 3.30924 9.14339 3.72866 8.40552 4.35281C7.66713 4.97741 7.06035 5.79054 6.63997 6.7341C6.21952 7.67781 5.99924 8.72159 6 9.78288C6.0004 10.3352 5.553 10.7832 5.00072 10.7836C4.44843 10.784 4.0004 10.3366 4 9.78431C3.99905 8.44765 4.27607 7.12553 4.81308 5.92018C5.35015 4.71469 6.13506 3.65381 7.11387 2.82584C8.09321 1.99743 9.24 1.42505 10.4668 1.16252C11.6941 0.899875 12.9598 0.956346 14.1622 1.32631C15.364 1.69607 16.4629 2.36663 17.3767 3.27624C18.29 4.18543 18.9944 5.30937 19.4424 6.55617C19.8902 7.80288 20.0716 9.14411 19.9746 10.4767C19.8776 11.8092 19.5045 13.1037 18.8796 14.2591C18.8641 14.2879 18.8471 14.3158 18.8288 14.3429C18.2206 15.244 17.4999 16.0498 16.6861 16.7353C15.9224 17.5461 15.3257 18.5445 14.9469 19.6602C14.9344 19.6972 14.9196 19.7334 14.9028 19.7687C14.5333 20.5447 14.0096 21.2291 13.363 21.768C12.7159 22.3073 11.9619 22.6871 11.153 22.8721C10.3436 23.0572 9.50653 23.0411 8.70423 22.8254C7.90243 22.6097 7.16188 22.202 6.53318 21.6394C6.12161 21.2711 6.08651 20.639 6.45478 20.2274C6.82306 19.8158 7.45525 19.7807 7.86682 20.149C8.27158 20.5112 8.73574 20.7628 9.22363 20.894C9.71102 21.0251 10.2167 21.0346 10.707 20.9225C11.1978 20.8102 11.6682 20.577 12.0826 20.2317C12.4846 19.8966 12.8245 19.4636 13.0736 18.9574C13.5493 17.5834 14.3 16.3371 15.277 15.3147C15.3031 15.2873 15.3308 15.2615 15.3598 15.2373C16.0311 14.6779 16.632 14.0145 17.1434 13.2649C17.6164 12.3755 17.9041 11.3724 17.9799 10.3315C18.0568 9.27396 17.9123 8.21274 17.5601 7.23236C17.208 6.25208 16.6598 5.38462 15.9657 4.69365C15.272 4.0031 14.4523 3.50807 13.5741 3.23787ZM12.7688 7.5912C12.4716 7.44593 12.153 7.38848 11.8397 7.41808C11.526 7.44771 11.2155 7.56485 10.9373 7.76915C10.6583 7.97407 10.4194 8.26162 10.2516 8.61336C10.0837 8.96533 9.99552 9.3644 9.99991 9.77282C10.0059 10.3251 9.56299 10.7776 9.01074 10.7835C8.45848 10.7895 8.00597 10.3466 8.00003 9.79434C7.99242 9.0875 8.14427 8.38579 8.44647 7.75227C8.74878 7.11852 9.19496 6.56739 9.75338 6.15724C10.3126 5.74646 10.9651 5.49179 11.6516 5.42695C12.3385 5.36207 13.0255 5.49049 13.6472 5.79441C14.2679 6.09785 14.7981 6.56346 15.1968 7.13782C15.5952 7.71176 15.8524 8.37953 15.9525 9.07875C16.0525 9.77793 15.9935 10.4946 15.7788 11.1653C15.564 11.8362 15.198 12.4471 14.7049 12.9372C14.3132 13.3265 13.6801 13.3246 13.2907 12.9329C12.9014 12.5412 12.9033 11.908 13.295 11.5187C13.5501 11.2651 13.7523 10.9357 13.874 10.5557C13.9956 10.1756 14.0302 9.76436 13.9726 9.36203C13.9151 8.95974 13.7685 8.58754 13.5538 8.27831C13.3394 7.96949 13.0669 7.73695 12.7688 7.5912Z" fill="black"/>
</svg>

<svg
  width="24"
  height="24"
  viewBox="0 0 24 24"
  xmlns="http://www.w3.org/2000/svg"
>
  <path
    fill-rule="evenodd"
    clip-rule="evenodd"
    d="M13.574 3.238a5.323 5.323 0 0 0-2.689-.12 5.686 5.686 0 0 0-2.48 1.235A6.658 6.658 0 0 0 6.64 6.734 7.494 7.494 0 0 0 6 9.783a1 1 0 1 1-2 .001 9.494 9.494 0 0 1 .813-3.864 8.657 8.657 0 0 1 2.3-3.094 7.685 7.685 0 0 1 3.354-1.663 7.323 7.323 0 0 1 3.695.163c1.202.37 2.3 1.04 3.215 1.95a8.838 8.838 0 0 1 2.065 3.28 9.566 9.566 0 0 1 .533 3.92 9.395 9.395 0 0 1-1.095 3.783.978.978 0 0 1-.051.084 11.632 11.632 0 0 1-2.143 2.392 8.021 8.021 0 0 0-1.74 2.925.99.99 0 0 1-.043.109 5.896 5.896 0 0 1-1.54 1.999 5.3 5.3 0 0 1-2.21 1.104 5.063 5.063 0 0 1-2.449-.047 5.338 5.338 0 0 1-2.17-1.186 1 1 0 1 1 1.333-1.49c.405.362.869.614 1.357.745.487.131.993.14 1.483.029.49-.113.961-.346 1.376-.691.402-.335.742-.768.99-1.275a10.003 10.003 0 0 1 2.204-3.642.993.993 0 0 1 .083-.078 9.62 9.62 0 0 0 1.783-1.972c.473-.89.761-1.893.837-2.934a7.567 7.567 0 0 0-.42-3.099 6.836 6.836 0 0 0-1.594-2.538 5.827 5.827 0 0 0-2.392-1.456zM12.77 7.59a1.735 1.735 0 0 0-.93-.173c-.313.03-.623.147-.902.351a2.236 2.236 0 0 0-.685.844A2.635 2.635 0 0 0 10 9.773a1 1 0 1 1-2 .021 4.635 4.635 0 0 1 .446-2.042 4.235 4.235 0 0 1 1.307-1.595 3.81 3.81 0 0 1 1.899-.73 3.735 3.735 0 0 1 1.995.367 4.07 4.07 0 0 1 1.55 1.344c.398.574.655 1.242.756 1.94.1.7.04 1.417-.174 2.087a4.376 4.376 0 0 1-1.074 1.772 1 1 0 0 1-1.41-1.418c.255-.254.457-.583.579-.963.122-.38.156-.792.099-1.194a2.53 2.53 0 0 0-.42-1.084 2.071 2.071 0 0 0-.784-.687z"
  />
</svg>
